X: 1690
T: My Darling Fair Maid
M:2/4
L:1/16
B:O'Neill's 1690
N:"collected by F.O'Neill"
K:G
B>G \
| G>ED>DG2G>B | d>BG>Bd2d>e | d>B(3BAG A2A>B | c>AB>GE2B>A |
| G>ED>EG2G>A | d>BG>Bd2g>e | d>BG>DG>AB>G | A>BG>GG2 :|
|: G>A \
| B>dd>ed2g>e | d>B(3BAGA2A>B | c>Bc>de>fg>e | d>BA>GA2A>B |
| c>Bc>de>fg>e | d>BA>GA>cB>A | G>ED>EG>AB>G | A>BG>GG2 :|


